X:15212
T:Sept Marins
D:transcribed from: CD "Spin", PANIC ATC, PATCCD20294
G:Whirling Pope Joan 
Z:abc transcription Simon Wascher
N:please mail errors to simon.wascher@chello.at
M:2/4
L:1/8
K:Gm
DG/A/ BA|BA DG/A/|BA BA|DG/A/ BA|
B2 DG/A/|BA BA|DG/A/ BA|BA DG/A/|
BA B2||
Bc/d/ BG|BA DG/A/|B/A/G A2|
Bc/d/ BG|BA DG/A/|BA G2|Bc/d/ BG|
BA DG/A/|B/A/G A2|Bc/d/ BG|BA DG/A/|
BA G2|]
